assets/Hamsa/Flat/hamsa_flat.svg

<svg width="32" height="32" viewBox="0 0 32 32" fill="none" xmlns="http://www.w3.org/2000/svg">
<path d="M23 12.0156V7C23 5.34315 21.6569 4 20 4C19.6097 4 19.2369 4.07452 18.8949 4.21009C18.5482 2.93647 17.3835 2 16 2C14.6165 2 13.4518 2.93647 13.1051 4.21009C12.7631 4.07452 12.3902 4 12 4C10.3431 4 9 5.34315 9 7V12.0156C6.95768 12.0156 5.32023 12.8699 4.23595 13.7409C3.51057 14.3236 3.7986 15.3417 4.54234 15.9008C5.49654 16.6181 6 17.52 6 19V20C6 25.5228 10.4771 30 16 30C21.5228 30 26 25.5228 26 20V19C26 17.52 26.5035 16.6181 27.4577 15.9008C28.2014 15.3417 28.4894 14.3236 27.764 13.7409C26.6798 12.8699 25.0423 12.0156 23 12.0156Z" fill="#00A6ED"/>
<path fill-rule="evenodd" clip-rule="evenodd" d="M12 4V13.5C12 13.7761 12.2239 14 12.5 14C12.7761 14 13 13.7761 13 13.5V4.17071C12.6872 4.06016 12.3506 4 12 4ZM19 4.17071V13.5156C19 13.7918 19.2239 14.0156 19.5 14.0156C19.7761 14.0156 20 13.7918 20 13.5156V4C19.6494 4 19.3128 4.06016 19 4.17071Z" fill="#1345B7"/>
<path fill-rule="evenodd" clip-rule="evenodd" d="M15.9497 16L16 16.0002L16.0503 16C18.4653 16 20.3061 17.6087 21.219 18.9714C21.6728 19.6488 21.6681 20.5203 21.1999 21.1879C20.2806 22.4985 18.4485 24.0312 16.0503 24.0312L16 24.0311L15.9497 24.0312C13.5515 24.0312 11.7195 22.4985 10.8002 21.1879C10.332 20.5203 10.3272 19.6488 10.781 18.9714C11.6939 17.6087 13.5347 16 15.9497 16ZM16.0123 23.3131C17.838 23.3131 19.3181 21.8331 19.3181 20.0074C19.3181 18.1817 17.838 16.7017 16.0123 16.7017C14.1866 16.7017 12.7066 18.1817 12.7066 20.0074C12.7066 21.8331 14.1866 23.3131 16.0123 23.3131Z" fill="white"/>
<path d="M17.8868 20.0075C17.8868 21.0427 17.0476 21.882 16.0123 21.882C14.9771 21.882 14.1378 21.0427 14.1378 20.0075C14.1378 18.9722 14.9771 18.133 16.0123 18.133C17.0476 18.133 17.8868 18.9722 17.8868 20.0075Z" fill="#212121"/>
</svg>

<svg xmlns="http://www.w3.org/2000/svg" width="32" height="32" fill="none"><path fill="#00A6ED" d="M23 12.016V7a3 3 0 0 0-4.105-2.79 3.001 3.001 0 0 0-5.79 0A3 3 0 0 0 9 7v5.016c-2.042 0-3.68.854-4.764 1.725-.725.583-.437 1.6.306 2.16C5.497 16.618 6 17.52 6 19v1c0 5.523 4.477 10 10 10s10-4.477 10-10v-1c0-1.48.503-2.382 1.458-3.1.743-.558 1.031-1.576.306-2.16-1.084-.87-2.722-1.724-4.764-1.724Z"/><path fill="#1345B7" fill-rule="evenodd" d="M12 4v9.5a.5.5 0 0 0 1 0V4.17c-.313-.11-.65-.17-1-.17Zm7 .17v9.346a.5.5 0 1 0 1 0V4c-.35 0-.687.06-1 .17Z" clip-rule="evenodd"/><path fill="#fff" fill-rule="evenodd" d="M15.95 16h.1c2.415 0 4.256 1.609 5.169 2.971a1.95 1.95 0 0 1-.02 2.217c-.918 1.31-2.75 2.843-5.149 2.843h-.1c-2.398 0-4.23-1.532-5.15-2.843a1.95 1.95 0 0 1-.019-2.217C11.694 17.61 13.535 16 15.95 16Zm.062 7.313a3.306 3.306 0 1 0 0-6.611 3.306 3.306 0 0 0 0 6.611Z" clip-rule="evenodd"/><path fill="#212121" d="M17.887 20.008a1.875 1.875 0 1 1-3.75 0 1.875 1.875 0 0 1 3.75 0Z"/></svg>
